X:241
T:Reel 241
M:4/4
K:Gmaj
L:1/8
B/2A/2|G2BG AGFD|G2Bd cedc|G2BG AGED| (3BAG AG FDEF|G2BG AGFD|G2Bd efge|dcBG AGEF|GBAG EGG2|Bddd cdec|Bddc BEE2|Bddf edcB|cABG EGG2|Bddf ecce|dcBG AGEG|Bdef gfed|ecec BAG2|
